findly-builder/apps/searchassist/src/assets/icons/overview/sortup.svg

<svg width="8" height="13" viewBox="0 0 8 13" fill="none" xmlns="http://www.w3.org/2000/svg">
<path d="M3.67396 0.138843L0.626316 2.88172L0.591202 2.9163C0.402958 3.11917 0.397388 3.43586 0.586113 3.64556L0.620689 3.68067C0.823569 3.86892 1.14026 3.87449 1.34995 3.68576L3.49499 1.75502L3.49499 11.9036L3.4972 11.9528C3.52207 12.2284 3.75374 12.4444 4.03585 12.4444C4.33457 12.4444 4.57672 12.2023 4.57672 11.9036V1.7555L6.7216 3.68576L6.75967 3.71705C6.98119 3.88296 7.29671 3.85526 7.48544 3.64556C7.68526 3.42353 7.66727 3.08155 7.44524 2.88172L4.39759 0.138843L4.36023 0.108096C4.15553 -0.0456405 3.86755 -0.0353913 3.67396 0.138843Z" fill="#0D6EFD"/>
</svg>

<svg width="8" height="13" fill="none" xmlns="http://www.w3.org/2000/svg"><path d="M3.674.139.626 2.882l-.035.034a.54.54 0 0 0-.005.73l.035.035a.54.54 0 0 0 .729.005l2.145-1.931v10.149l.002.049a.54.54 0 0 0 1.08-.05V1.756l2.145 1.93.038.032a.54.54 0 0 0 .685-.835L4.398.139 4.36.109a.54.54 0 0 0-.686.03Z" fill="#0D6EFD"/></svg>
